X:202
T:Donald I. Rankine #1
C:Joe Buchanan's Scottish Tome - Page 279.1
I:279 1
R:Jig
Z:Carl Allison
L:1/8
M:6/8
K:F
c | "F" Acc FAA | CFF A,CC | A,CC FAA | "C" FEE E3 |
"C" A,CC FAA | GBB Bcc | cee ecc | "F" BAA A3 |
"F" Acc FAA | DFF A,CC | A,CC FAA | "C" FEE E3 |
"C" CEE EGG | GBB Bcc | cee ede | "F" gff f3 |
"F" aff cff | aff dcc | aff cff | "C" fee e3 |
"C" gee cee | gee edc | gee cee | "F" dcc c3 |
"F" aff cee | aff dcc | aff cff | "Bb" fdd d3 |
"C" dBB FBB | CFF Acc | cee ede | "F" gff f3 :|
